X: 5
T: Come West Along The Road
R: reel
M: 4/4
L: 1/8
K: Gmaj
| d2 (3BAG d2 (3BAG | G2Bd efge | d2 (3BAG d2 (3BAG  | ABcd edBc |
| d2 (3BAG d2 (3BAG | G2Bd efge | d2 (3BAG d2 (3BAG  | ABcd edBd ||
| g2bg egdg | egdg egde | g2bg egdB | ABcd edBd |
| g2bg egdg | (3efg dg egdf | gabg efge | dega ba (3gfe ||


Tune 474	Setting 22920

